src/activities/arts-crafts/1F3A8.svg

<svg viewBox="0 0 72 72" xmlns="http://www.w3.org/2000/svg"><path fill="#b3b3b3" d="M68 4v64H4V4h64m4-4H0v72h72V0z"/><path fill="none" stroke="#00a5ff" stroke-miterlimit="10" stroke-width=".1" d="M12.923 10.958h46.154A1.923 1.923 0 0161 12.881v46.154a1.923 1.923 0 01-1.923 1.923H12.923A1.923 1.923 0 0111 59.035V12.881a1.923 1.923 0 011.923-1.923z"/><rect x="16" y="4" rx="2.254" width="40" height="64" fill="none" stroke="#00a5ff" stroke-miterlimit="10" stroke-width=".1"/><rect x="16" y="4" rx="2.254" width="40" height="64" transform="rotate(90 36 36)" fill="none" stroke="#00a5ff" stroke-miterlimit="10" stroke-width=".1"/><circle cx="36" cy="36" r="29" fill="none" stroke="#00a5ff" stroke-miterlimit="10" stroke-width=".1"/><g stroke-linecap="round" stroke-miterlimit="10" stroke-width="6" stroke="#fff" fill="none" stroke-linejoin="round"><path d="M59 36c-.25-.75-.71-2.1-2-3-1.56-1.08-3.63-1.01-4-1-.76.03-1.18.16-2 0-.58-.12-1.53-.3-2-1-.4-.59-.15-1.08 0-3 .12-1.51.17-2.27 0-3-.37-1.58-1.49-2.56-2-3-1.05-.92-2.38-1.56-5-2-1.82-.31-4.75-.6-9 0-2.15.3-5.46.87-8 1.72-1.77.58-3.74 1.41-6 3-.02.01-.04.02-.05.03-3.44 2.24-5.39 6.2-5.22 10.31C14.64 57.13 54.56 59.91 59 41c.09-.6.79-2.65 0-5zm-20.79-5.88a2.76 2.76 0 01-2.76-2.76c0-1.53 1.23-2.76 2.76-2.76h2.71a2.76 2.76 0 110 5.52h-2.71z"/><circle cx="20" cy="33" r="3"/><circle cx="25" cy="42" r="3"/><circle cx="35" cy="45" r="3"/><circle cx="45" cy="44" r="3"/></g><path fill="#A57939" d="M59 36c-.25-.75-.71-2.1-2-3-1.56-1.08-3.63-1.01-4-1-.76.03-1.18.16-2 0-.58-.12-1.53-.3-2-1-.4-.59-.15-1.08 0-3 .12-1.51.17-2.27 0-3-.37-1.58-1.49-2.56-2-3-1.05-.92-2.38-1.56-5-2-1.82-.31-4.75-.6-9 0-2.15.3-5.46.87-8 1.72-1.77.58-3.74 1.41-6 3-.02.01-.04.02-.05.03-3.44 2.24-5.39 6.2-5.22 10.31C14.64 57.13 54.56 59.91 59 41c.09-.6.79-2.65 0-5zm-20.79-5.88a2.76 2.76 0 01-2.76-2.76c0-1.53 1.23-2.76 2.76-2.76h2.71a2.76 2.76 0 110 5.52h-2.71z"/><circle cx="20" cy="33" r="3" fill="#61B2E4"/><circle cx="25" cy="42" r="3" fill="#5C9E31"/><circle cx="35" cy="45" r="3" fill="#FCEA2B"/><circle cx="45" cy="44" r="3" fill="#D22F27"/><g fill="none" stroke="#000" stroke-miterlimit="10" stroke-width="2"><path stroke-linecap="round" stroke-linejoin="round" d="M59 36c-.25-.75-.71-2.1-2-3-1.56-1.08-3.63-1.01-4-1-.76.03-1.18.16-2 0-.58-.12-1.53-.3-2-1-.4-.59-.15-1.08 0-3 .12-1.51.17-2.27 0-3-.37-1.58-1.49-2.56-2-3-1.05-.92-2.38-1.56-5-2-1.82-.31-4.75-.6-9 0-2.15.3-5.46.87-8 1.72-1.77.58-3.74 1.41-6 3-.02.01-.04.02-.05.03-3.44 2.24-5.39 6.2-5.22 10.31C14.64 57.13 54.56 59.91 59 41c.09-.6.79-2.65 0-5zm-20.79-5.88a2.76 2.76 0 01-2.76-2.76c0-1.53 1.23-2.76 2.76-2.76h2.71a2.76 2.76 0 110 5.52h-2.71z"/><circle cx="20" cy="33" r="3"/><circle cx="25" cy="42" r="3" stroke-linecap="round" stroke-linejoin="round"/><circle cx="35" cy="45" r="3"/><circle cx="45" cy="44" r="3"/></g></svg>

<svg id="emoji" viewBox="0 0 72 72" xmlns="http://www.w3.org/2000/svg">
  <g id="grid">
    <path fill="#b3b3b3" d="M68,4V68H4V4H68m4-4H0V72H72V0Z"/>
    <path fill="none" stroke="#00a5ff" stroke-miterlimit="10" stroke-width="0.1" d="M12.923,10.9583H59.0769A1.9231,1.9231,0,0,1,61,12.8814V59.0352a1.9231,1.9231,0,0,1-1.9231,1.9231H12.9231A1.9231,1.9231,0,0,1,11,59.0352V12.8813A1.923,1.923,0,0,1,12.923,10.9583Z"/>
    <rect x="16" y="4" rx="2.2537" width="40" height="64" fill="none" stroke="#00a5ff" stroke-miterlimit="10" stroke-width="0.1"/>
    <rect x="16" y="4" rx="2.2537" width="40" height="64" transform="translate(72) rotate(90)" fill="none" stroke="#00a5ff" stroke-miterlimit="10" stroke-width="0.1"/>
    <circle cx="36" cy="36" r="29" fill="none" stroke="#00a5ff" stroke-miterlimit="10" stroke-width="0.1"/>
  </g>
  <g id="color">
    <path fill="#A57939" stroke="none" stroke-linecap="round" stroke-linejoin="round" stroke-miterlimit="10" stroke-width="2" d="M59,36c-0.25-0.75-0.71-2.1-2-3c-1.56-1.08-3.63-1.01-4-1c-0.76,0.03-1.18,0.16-2,0c-0.58-0.12-1.53-0.3-2-1 c-0.4-0.59-0.15-1.08,0-3c0.12-1.51,0.17-2.27,0-3c-0.37-1.58-1.49-2.56-2-3c-1.05-0.92-2.38-1.56-5-2c-1.82-0.31-4.75-0.6-9,0 c-2.15,0.3-5.46,0.87-8,1.72c-1.77,0.58-3.74,1.41-6,3c-0.02,0.01-0.04,0.02-0.05,0.03c-3.44,2.24-5.39,6.2-5.22,10.31 C14.64,57.13,54.56,59.91,59,41C59.09,40.4,59.79,38.35,59,36z M38.21,30.12c-1.53,0-2.76-1.24-2.76-2.76 c0-1.53,1.23-2.76,2.76-2.76h2.71c1.52,0,2.76,1.23,2.76,2.76c0,0.76-0.31,1.45-0.81,1.95s-1.19,0.81-1.95,0.81H38.21z"/>
    <circle cx="20" cy="33" r="3" fill="#61B2E4" stroke="none" stroke-miterlimit="10" stroke-width="2"/>
    <circle cx="25" cy="42" r="3" fill="#5C9E31" stroke="none" stroke-linecap="round" stroke-linejoin="round" stroke-miterlimit="10" stroke-width="2"/>
    <circle cx="35" cy="45" r="3" fill="#FCEA2B" stroke="none" stroke-miterlimit="10" stroke-width="2"/>
    <circle cx="45" cy="44" r="3" fill="#D22F27" stroke="none" stroke-miterlimit="10" stroke-width="2"/>
  </g>
  <g id="hair"/>
  <g id="skin"/>
  <g id="skin-shadow"/>
  <g id="line">
    <path fill="none" stroke="#000000" stroke-linecap="round" stroke-linejoin="round" stroke-miterlimit="10" stroke-width="2" d="M59,36c-0.25-0.75-0.71-2.1-2-3c-1.56-1.08-3.63-1.01-4-1c-0.76,0.03-1.18,0.16-2,0c-0.58-0.12-1.53-0.3-2-1 c-0.4-0.59-0.15-1.08,0-3c0.12-1.51,0.17-2.27,0-3c-0.37-1.58-1.49-2.56-2-3c-1.05-0.92-2.38-1.56-5-2c-1.82-0.31-4.75-0.6-9,0 c-2.15,0.3-5.46,0.87-8,1.72c-1.77,0.58-3.74,1.41-6,3c-0.02,0.01-0.04,0.02-0.05,0.03c-3.44,2.24-5.39,6.2-5.22,10.31 C14.64,57.13,54.56,59.91,59,41C59.09,40.4,59.79,38.35,59,36z M38.21,30.12c-1.53,0-2.76-1.24-2.76-2.76 c0-1.53,1.23-2.76,2.76-2.76h2.71c1.52,0,2.76,1.23,2.76,2.76c0,0.76-0.31,1.45-0.81,1.95s-1.19,0.81-1.95,0.81H38.21z"/>
    <circle cx="20" cy="33" r="3" fill="none" stroke="#000000" stroke-miterlimit="10" stroke-width="2"/>
    <circle cx="25" cy="42" r="3" fill="none" stroke="#000000" stroke-linecap="round" stroke-linejoin="round" stroke-miterlimit="10" stroke-width="2"/>
    <circle cx="35" cy="45" r="3" fill="none" stroke="#000000" stroke-miterlimit="10" stroke-width="2"/>
    <circle cx="45" cy="44" r="3" fill="none" stroke="#000000" stroke-miterlimit="10" stroke-width="2"/>
  </g>
</svg>
